X:1
T:Title
%%score 1 { 2 | 3 }
L:1/8
Q:1/4=90
M:3/4
K:G
V:1 treble nm="Grand Piano, Soprano"
V:2 bass nm="Choir Pad, Salzgitter, William F Sherwin"
V:3 bass 
V:1
 [DB]>[B,G] [Ec]3 [DB] | [CA][B,G] [CE]2 [B,D]2 | [DG]>[DA] [DB]3 [Gd] | [Fc][GB] [FA]4 | %4
w: By~William~Fiske~Sherwin,~1881 * * *||||
 [GB]>[DG] [Ec]3 [DB] | [CA][B,G] [CE]2 [B,D]2 | [DG]>[DG] [EA]3 [Ec] | [DB][DA] [DG]4 | %8
w: ||||
 [DB]>[Dc] [Gd]3 [GB] | [Ge][Gd] [Ac]2 [FA]2 | [FA]>[GB] [Ac]3 [FA] | [Bd][Ac] [GB]4 | %12
w: ||||
 [DG]>[DA] [DB]3 [B,G] | [Ec][DB] [EA]2 [EG]2 | [DF]>[CE] [B,D]3 [DG] | [DA]>[DG] [DG]4- | %16
w: ||||
 [DG]4 z2 |] %17
w: |
V:2
 G,>G, G,3 G, | F,G, G,2 G,2 | G,>F, G,3[K:treble] D | DD D4 | D>[K:bass]B, G,3 G, | F,G, G,2 G,2 | %6
 G,>G, G,3 G, | G,C B,4 | G,>A, B,3[K:treble] D | CB, D2 D2 | D>D D3 D | DD D4 | G,>F, G,3 G, | %13
 G,G, G,2 G,2 | G,>G, G,3 B, | C>B, B,4- | B,4 z2 |] %17
V:3
 z6 | D,E, C,2 G,,2 | B,,>D, z2 z B, | A,G, D,4 | G,>G, z2 z2 | D,E, C,2 G,,2 | B,,>B,, C,3 C, | %7
 D,D, G,,4 | z z/ G,/ G,3 G, | G,G, D,2 D,2 | D,>D, D,3 D, | D,D, G,4 | B,,>D, z2 z2 | %13
 G,,G,, C,2 C,2 | C,>C, D,3 D, | D,>G,, G,,4- | G,,4 z2 |] %17

